logo/uservoice.svg

<svg viewBox="0 0 512 128" xmlns="http://www.w3.org/2000/svg"><path fill="#FF6720" d="M80.96 0l21.44 14.08v70.4c-.32 24-20.8 42.56-37.44 42.56 16.32-9.92 20.48-24.32 20.48-38.4v0V22.4l-4.48-2.88 -4.16 2.88v67.2l-.01.63c-.35 20.83-17.49 37.76-38.4 37.76 -21.12 0-38.4-17.28-38.4-38.4v0 -4.16c0-4.16 4.16-8.64 4.16-12.8 0-2.88-1.92-6.08-3.2-8.96 -.64-.96-.96-2.56-.96-3.84 0-4.8 3.84-8.64 8.32-8.64 4.8 0 8.64 3.84 8.64 8.64 0 1.28-.32 2.56-.96 3.84 -1.28 2.88-3.2 6.08-3.2 8.96 0 4.16 4.16 8.64 4.16 12.8v0 4.16l0 .39c.17 9.42 6.51 17.24 15.03 20.08 -4.16-5.76-6.4-12.8-6.4-20.48v0 -4.16c0-4.16 4.16-8.64 4.16-12.8 0-2.88-1.92-6.08-3.2-8.96 -.64-.96-.96-2.56-.96-3.84 0-4.8 3.52-8.64 8.32-8.64 4.8 0 8.64 3.84 8.64 8.64 0 1.28-.32 2.56-.96 3.84 -1.28 2.88-3.2 6.08-3.2 8.96 0 4.16 4.16 8.64 4.16 12.8v0 4.16c0 6.72 2.88 13.12 8 17.28 5.44-3.84 8.96-10.24 8.96-17.28v0V14.06L80.94-.02ZM8.64 28.16c4.77 0 8.64 3.86 8.64 8.64 0 4.77-3.87 8.64-8.64 8.64C3.86 45.44 0 41.57 0 36.8c0-4.78 3.86-8.64 8.64-8.64Zm25.6-.32c4.77 0 8.64 3.86 8.64 8.64 0 4.77-3.87 8.64-8.64 8.64 -4.78 0-8.64-3.87-8.64-8.64 0-4.78 3.86-8.64 8.64-8.64ZM8.64 5.12c4.77-.001 8.64 3.86 8.64 8.64 0 4.77-3.87 8.64-8.64 8.64C3.86 22.4 0 18.53 0 13.76c0-4.78 3.86-8.64 8.64-8.64Zm25.6-.32c4.77 0 8.64 3.86 8.64 8.64 0 4.77-3.87 8.64-8.64 8.64 -4.78 0-8.64-3.87-8.64-8.64 0-4.78 3.86-8.64 8.64-8.64Z"/><path fill="#464653" d="M297.28 48h-9.92v12.48h9.92c4.16 0 6.72-2.56 6.72-6.4 0-3.84-2.88-6.08-6.72-6.08Zm86.08-.96c-4.16 0-7.04 1.92-8.32 6.08 -.64 1.6-.96 3.84-.96 10.88 0 7.04.32 9.28.96 10.88 1.28 3.84 4.16 6.08 8.32 6.08s7.04-1.92 8.32-6.08c.64-1.6.96-3.84.96-10.88 0-7.04-.32-9.28-.96-10.88 -.96-4.16-3.84-6.08-8.32-6.08Zm127.36-8c.64 0 1.28.64 1.28 1.28v6.08c0 .64-.64 1.28-1.28 1.28h-21.76V59.2h18.24c.64 0 1.28.64 1.28 1.28v6.08c0 .64-.64 1.28-1.28 1.28h-18.24v11.84h21.76c.64 0 1.28.64 1.28 1.28v6.08c0 .64-.64 1.28-1.28 1.28h-30.08c-.64 0-1.28-.64-1.28-1.28V40.32c0-.64.64-1.28 1.28-1.28 0 0 30.08 0 30.08 0Zm-88.96 0c.64 0 1.28.64 1.28 1.28v47.04c0 .64-.64 1.28-1.28 1.28h-7.04c-.64 0-1.28-.64-1.28-1.28V40.32c0-.64.64-1.28 1.28-1.28 0 0 7.04 0 7.04 0Zm-94.4 0c.64 0 1.28.32 1.6 1.28l10.24 32.96 9.92-32.96c.32-.64.64-.96 1.6-.96h6.72c.32 0 .64.32.96.32 .32.32.32.64 0 .96l-15.36 47.04c-.32.64-.64.96-1.28.96H336c-.64 0-1.28-.32-1.28-.96l-15.04-47.04c0-.32 0-.64 0-.96 .32-.32.64-.32.96-.32l6.72-.32v0Zm-30.08 0c9.28 0 16 6.4 16 15.04 0 6.08-3.2 11.2-8.96 13.76l9.92 19.2c.32.32.32.96 0 1.28 -.32.32-.64.64-.96.64h-7.68c-.64 0-1.28-.32-1.6-.96l-8.96-18.56h-7.68v18.24c0 .64-.64 1.28-1.28 1.28h-7.04c-.64 0-1.28-.64-1.28-1.28V40.32c0-.64.64-1.28 1.28-1.28 0 0 18.24 0 18.24 0Zm-31.68 0c.64 0 1.28.64 1.28 1.28v6.08c0 .64-.64 1.28-1.28 1.28h-21.76V59.2h18.24c.64 0 1.28.64 1.28 1.28v6.08c0 .64-.64 1.28-1.28 1.28h-18.24v11.84h21.76c.64 0 1.28.64 1.28 1.28v6.08c0 .64-.64 1.28-1.28 1.28h-30.08c-.64 0-1.28-.64-1.28-1.28V40.32c0-.64.64-1.28 1.28-1.28 0 0 30.08 0 30.08 0Zm187.2-.64c7.68 0 13.76 3.84 16.64 10.88 .32.64 0 1.28-.64 1.6l-6.08 2.88c-.32.32-.64.32-.96 0 -.32 0-.64-.32-.64-.64 -1.92-3.84-4.48-5.76-8.32-5.76 -4.16 0-6.72 1.92-8 6.08 -.64 1.92-.96 3.84-.96 10.88v.96c0 6.4.32 8.32.96 9.92 1.28 4.16 4.16 6.08 8 6.08s6.72-1.92 8.32-6.08c0-.32.32-.64.64-.64s.64 0 .96 0l6.08 2.88c.64.32.96.96.64 1.6 -2.88 6.72-8.96 10.88-16.64 10.88 -8.64 0-14.72-4.48-17.28-12.16 -.96-3.2-1.28-5.76-1.28-13.44v-.96c0-6.72.32-9.28 1.28-12.48 2.56-8 8.64-12.48 17.28-12.48Zm-247.36 0c5.76 0 11.84 1.92 16 5.12 .64.64.64.96.32 1.92l-3.52 5.12c-.64.64-1.28.64-1.6.32 -3.84-2.56-7.36-3.84-11.2-3.84 -4.16 0-7.04 2.24-7.04 5.76 0 2.24.96 4.8 8.32 6.08l2.56.32C219.2 60.48 224 65.6 224 73.92c0 9.6-7.04 15.68-18.56 15.68 -6.72 0-13.76-2.56-17.92-6.72 -.64-.64-.64-1.28-.32-1.92l4.48-5.12c.32-.32.64-.32.96-.32 .32 0 .64 0 .96.32 2.88 2.24 7.36 5.12 12.8 5.12 5.12 0 8.32-2.56 8.32-6.4 0-2.56-.96-5.12-8.32-6.08l-2.56-.32c-9.92-1.28-15.04-6.4-15.04-14.4 -.32-9.28 6.72-15.36 16.64-15.36Zm-56.32.64c.64 0 1.28.64 1.28 1.28v30.72c0 6.08 3.2 9.92 8.64 9.92s8.96-3.84 8.96-9.92V40.32c0-.64.64-1.28 1.28-1.28H176c.64 0 1.28.64 1.28 1.28v30.72c0 10.88-7.36 18.24-18.24 18.24 -10.88 0-18.24-7.36-18.24-18.24V40.32c0-.64.64-1.28 1.28-1.28 0 0 7.04 0 7.04 0Zm234.24-.64c8.96 0 15.04 4.16 17.6 12.16 .96 3.2 1.28 5.76 1.28 13.44s-.32 10.24-1.28 13.44c-2.56 7.68-8.64 12.16-17.6 12.16 -8.64 0-15.04-4.16-17.6-12.16 -.96-3.2-1.28-5.76-1.28-13.44v-.96c0-7.04.32-9.6 1.28-12.48 2.88-8 8.96-12.16 17.6-12.16Z"/></svg>

<?xml version="1.0" encoding="UTF-8"?>
<svg width="512px" height="128px" viewBox="0 0 512 128" version="1.1" xmlns="http://www.w3.org/2000/svg" xmlns:xlink="http://www.w3.org/1999/xlink" preserveAspectRatio="xMidYMid">
    <g>
        <path d="M80.96,0 L102.4,14.08 L102.4,84.48 C102.08,108.48 81.6,127.04 64.96,127.04 C81.28,117.12 85.44,102.72 85.44,88.64 L85.44,88.64 L85.44,22.4 L80.96,19.52 L76.8,22.4 L76.8,89.6 L76.7948294,90.2324346 C76.454016,111.063872 59.3088,128 38.4,128 C17.28,128 0,110.72 0,89.6 L0,89.6 L0,85.44 C0,81.28 4.16,76.8 4.16,72.64 C4.16,69.76 2.24,66.56 0.96,63.68 C0.32,62.72 0,61.12 0,59.84 C0,55.04 3.84,51.2 8.32,51.2 C13.12,51.2 16.96,55.04 16.96,59.84 C16.96,61.12 16.64,62.4 16,63.68 C14.72,66.56 12.8,69.76 12.8,72.64 C12.8,76.8 16.96,81.28 16.96,85.44 L16.96,85.44 L16.96,89.6 L16.9636926,89.9990646 C17.1382099,99.4212346 23.48,107.24 32,110.08 C27.84,104.32 25.6,97.28 25.6,89.6 L25.6,89.6 L25.6,85.44 C25.6,81.28 29.76,76.8 29.76,72.64 C29.76,69.76 27.84,66.56 26.56,63.68 C25.92,62.72 25.6,61.12 25.6,59.84 C25.6,55.04 29.12,51.2 33.92,51.2 C38.72,51.2 42.56,55.04 42.56,59.84 C42.56,61.12 42.24,62.4 41.6,63.68 C40.32,66.56 38.4,69.76 38.4,72.64 C38.4,76.8 42.56,81.28 42.56,85.44 L42.56,85.44 L42.56,89.6 C42.56,96.32 45.44,102.72 50.56,106.88 C56,103.04 59.52,96.64 59.52,89.6 L59.52,89.6 L59.52,14.08 L80.96,0 Z M8.64,28.16 C13.4117402,28.16 17.28,32.0282598 17.28,36.8 C17.28,41.5717402 13.4117402,45.44 8.64,45.44 C3.86825976,45.44 0,41.5717402 0,36.8 C0,32.0282598 3.86825976,28.16 8.64,28.16 Z M34.24,27.84 C39.0117402,27.84 42.88,31.7082598 42.88,36.48 C42.88,41.2517402 39.0117402,45.12 34.24,45.12 C29.4682598,45.12 25.6,41.2517402 25.6,36.48 C25.6,31.7082598 29.4682598,27.84 34.24,27.84 Z M8.64,5.12 C13.4117402,5.12 17.28,8.98825976 17.28,13.76 C17.28,18.5317402 13.4117402,22.4 8.64,22.4 C3.86825976,22.4 0,18.5317402 0,13.76 C0,8.98825976 3.86825976,5.12 8.64,5.12 Z M34.24,4.8 C39.0117402,4.8 42.88,8.66825976 42.88,13.44 C42.88,18.2117402 39.0117402,22.08 34.24,22.08 C29.4682598,22.08 25.6,18.2117402 25.6,13.44 C25.6,8.66825976 29.4682598,4.8 34.24,4.8 Z" fill="#FF6720"></path>
        <path d="M297.28,48 L287.36,48 L287.36,60.48 L297.28,60.48 C301.44,60.48 304,57.92 304,54.08 C304,50.24 301.12,48 297.28,48 Z M383.36,47.04 C379.2,47.04 376.32,48.96 375.04,53.12 C374.4,54.72 374.08,56.96 374.08,64 C374.08,71.04 374.4,73.28 375.04,74.88 C376.32,78.72 379.2,80.96 383.36,80.96 C387.52,80.96 390.4,79.04 391.68,74.88 C392.32,73.28 392.64,71.04 392.64,64 C392.64,56.96 392.32,54.72 391.68,53.12 C390.72,48.96 387.84,47.04 383.36,47.04 Z M510.72,39.04 C511.36,39.04 512,39.68 512,40.32 L512,46.4 C512,47.04 511.36,47.68 510.72,47.68 L488.96,47.68 L488.96,59.2 L507.2,59.2 C507.84,59.2 508.48,59.84 508.48,60.48 L508.48,66.56 C508.48,67.2 507.84,67.84 507.2,67.84 L488.96,67.84 L488.96,79.68 L510.72,79.68 C511.36,79.68 512,80.32 512,80.96 L512,87.04 C512,87.68 511.36,88.32 510.72,88.32 L480.64,88.32 C480,88.32 479.36,87.68 479.36,87.04 L479.36,40.32 C479.36,39.68 480,39.04 480.64,39.04 C480.64,39.04 510.72,39.04 510.72,39.04 Z M421.76,39.04 C422.4,39.04 423.04,39.68 423.04,40.32 L423.04,87.36 C423.04,88 422.4,88.64 421.76,88.64 L414.72,88.64 C414.08,88.64 413.44,88 413.44,87.36 L413.44,40.32 C413.44,39.68 414.08,39.04 414.72,39.04 C414.72,39.04 421.76,39.04 421.76,39.04 Z M327.36,39.04 C328,39.04 328.64,39.36 328.96,40.32 L339.2,73.28 L349.12,40.32 C349.44,39.68 349.76,39.36 350.72,39.36 L357.44,39.36 C357.76,39.36 358.08,39.68 358.4,39.68 C358.72,40 358.72,40.32 358.4,40.64 L343.04,87.68 C342.72,88.32 342.4,88.64 341.76,88.64 L336,88.64 C335.36,88.64 334.72,88.32 334.72,87.68 L319.68,40.64 C319.68,40.32 319.68,40 319.68,39.68 C320,39.36 320.32,39.36 320.64,39.36 L327.36,39.04 L327.36,39.04 Z M297.28,39.04 C306.56,39.04 313.28,45.44 313.28,54.08 C313.28,60.16 310.08,65.28 304.32,67.84 L314.24,87.04 C314.56,87.36 314.56,88 314.24,88.32 C313.92,88.64 313.6,88.96 313.28,88.96 L305.6,88.96 C304.96,88.96 304.32,88.64 304,88 L295.04,69.44 L287.36,69.44 L287.36,87.68 C287.36,88.32 286.72,88.96 286.08,88.96 L279.04,88.96 C278.4,88.96 277.76,88.32 277.76,87.68 L277.76,40.32 C277.76,39.68 278.4,39.04 279.04,39.04 C279.04,39.04 297.28,39.04 297.28,39.04 Z M265.6,39.04 C266.24,39.04 266.88,39.68 266.88,40.32 L266.88,46.4 C266.88,47.04 266.24,47.68 265.6,47.68 L243.84,47.68 L243.84,59.2 L262.08,59.2 C262.72,59.2 263.36,59.84 263.36,60.48 L263.36,66.56 C263.36,67.2 262.72,67.84 262.08,67.84 L243.84,67.84 L243.84,79.68 L265.6,79.68 C266.24,79.68 266.88,80.32 266.88,80.96 L266.88,87.04 C266.88,87.68 266.24,88.32 265.6,88.32 L235.52,88.32 C234.88,88.32 234.24,87.68 234.24,87.04 L234.24,40.32 C234.24,39.68 234.88,39.04 235.52,39.04 C235.52,39.04 265.6,39.04 265.6,39.04 Z M452.8,38.4 C460.48,38.4 466.56,42.24 469.44,49.28 C469.76,49.92 469.44,50.56 468.8,50.88 L462.72,53.76 C462.4,54.08 462.08,54.08 461.76,53.76 C461.44,53.76 461.12,53.44 461.12,53.12 C459.2,49.28 456.64,47.36 452.8,47.36 C448.64,47.36 446.08,49.28 444.8,53.44 C444.16,55.36 443.84,57.28 443.84,64.32 L443.84,65.28 C443.84,71.68 444.16,73.6 444.8,75.2 C446.08,79.36 448.96,81.28 452.8,81.28 C456.64,81.28 459.52,79.36 461.12,75.2 C461.12,74.88 461.44,74.56 461.76,74.56 C462.08,74.56 462.4,74.56 462.72,74.56 L468.8,77.44 C469.44,77.76 469.76,78.4 469.44,79.04 C466.56,85.76 460.48,89.92 452.8,89.92 C444.16,89.92 438.08,85.44 435.52,77.76 C434.56,74.56 434.24,72 434.24,64.32 L434.24,63.36 C434.24,56.64 434.56,54.08 435.52,50.88 C438.08,42.88 444.16,38.4 452.8,38.4 Z M205.44,38.4 C211.2,38.4 217.28,40.32 221.44,43.52 C222.08,44.16 222.08,44.48 221.76,45.44 L218.24,50.56 C217.6,51.2 216.96,51.2 216.64,50.88 C212.8,48.32 209.28,47.04 205.44,47.04 C201.28,47.04 198.4,49.28 198.4,52.8 C198.4,55.04 199.36,57.6 206.72,58.88 L209.28,59.2 C219.2,60.48 224,65.6 224,73.92 C224,83.52 216.96,89.6 205.44,89.6 C198.72,89.6 191.68,87.04 187.52,82.88 C186.88,82.24 186.88,81.6 187.2,80.96 L191.68,75.84 C192,75.52 192.32,75.52 192.64,75.52 C192.96,75.52 193.28,75.52 193.6,75.84 C196.48,78.08 200.96,80.96 206.4,80.96 C211.52,80.96 214.72,78.4 214.72,74.56 C214.72,72 213.76,69.44 206.4,68.48 L203.84,68.16 C193.92,66.88 188.8,61.76 188.8,53.76 C188.48,44.48 195.52,38.4 205.44,38.4 Z M149.12,39.04 C149.76,39.04 150.4,39.68 150.4,40.32 L150.4,71.04 C150.4,77.12 153.6,80.96 159.04,80.96 C164.48,80.96 168,77.12 168,71.04 L168,40.32 C168,39.68 168.64,39.04 169.28,39.04 L176,39.04 C176.64,39.04 177.28,39.68 177.28,40.32 L177.28,71.04 C177.28,81.92 169.92,89.28 159.04,89.28 C148.16,89.28 140.8,81.92 140.8,71.04 L140.8,40.32 C140.8,39.68 141.44,39.04 142.08,39.04 C142.08,39.04 149.12,39.04 149.12,39.04 Z M383.36,38.4 C392.32,38.4 398.4,42.56 400.96,50.56 C401.92,53.76 402.24,56.32 402.24,64 C402.24,71.68 401.92,74.24 400.96,77.44 C398.4,85.12 392.32,89.6 383.36,89.6 C374.72,89.6 368.32,85.44 365.76,77.44 C364.8,74.24 364.48,71.68 364.48,64 L364.48,63.04 C364.48,56 364.8,53.44 365.76,50.56 C368.64,42.56 374.72,38.4 383.36,38.4 Z" fill="#464653"></path>
    </g>
</svg>
